img/svg/warranty.svg

<svg width="42" height="42" viewBox="0 0 42 42" fill="none" xmlns="http://www.w3.org/2000/svg">
<path d="M39.3885 20.2732C36.5637 20.2732 33.9417 18.8703 32.3746 16.5193L31.8124 15.6759L31.2501 16.5193C29.683 18.8703 27.061 20.2732 24.2363 20.2732H21.6758V31.1099C21.6758 33.7292 22.855 36.1911 24.8256 37.8433H10.8634V35.1402H19.6485V22.9763H5.45721V28.3825H1.40257V1.35155H31.1366V13.5155H32.4882V0H0.0510254V29.338L9.90786 39.1949H26.9029L31.8124 42L37.5227 38.7374C40.2528 37.1777 41.949 34.2543 41.949 31.1099V20.2732H39.3885ZM9.51185 36.8878L2.35812 29.734H9.51185V36.8878ZM6.80876 28.3825V24.3278H18.2969V33.7887H10.8634V28.3825H6.80876ZM40.5974 31.1099C40.5974 33.7711 39.1621 36.2438 36.8523 37.5642L31.8124 40.4444L26.7725 37.5642C24.4627 36.2438 23.0273 33.7711 23.0273 31.1099V21.6248H24.2363C27.1962 21.6248 29.9641 20.2969 31.8124 18.031C33.6606 20.2969 36.4286 21.6248 39.3885 21.6248H40.5974V31.1099Z" fill="#316485"/>
<path d="M37.8944 27.0308V31.1097C37.8944 32.8032 36.9807 34.3771 35.5109 35.2171L36.1813 36.3902C38.0714 35.3103 39.2459 33.2871 39.2459 31.1097V27.0308H37.8944Z" fill="#316485"/>
<path d="M4.10565 2.70312V6.75777H28.4335V2.70312H4.10565ZM27.0819 5.40622H5.4572V4.05467H27.0819V5.40622Z" fill="#316485"/>
<path d="M37.4166 23.1743L28.4335 32.1574L26.2082 29.9321L25.2527 30.8876L28.4335 34.0685L38.3721 24.1299L37.4166 23.1743Z" fill="#316485"/>
<path d="M16.9454 25.6792H8.16031V27.0307H16.9454V25.6792Z" fill="#316485"/>
<path d="M16.9453 28.3823H12.2149V29.7339H16.9453V28.3823Z" fill="#316485"/>
<path d="M16.9453 31.0854H12.2149V32.437H16.9453V31.0854Z" fill="#316485"/>
<path d="M25.7304 9.46094H4.10565V10.8125H25.7304V9.46094Z" fill="#316485"/>
<path d="M25.7304 12.1641H4.10565V13.5156H25.7304V12.1641Z" fill="#316485"/>
<path d="M25.7304 14.8672H4.10565V16.2187H25.7304V14.8672Z" fill="#316485"/>
<path d="M16.9453 17.5703H4.10565V18.9219H16.9453V17.5703Z" fill="#316485"/>
<path d="M16.9453 20.2734H4.10565V21.625H16.9453V20.2734Z" fill="#316485"/>
<path d="M28.4335 9.46094H27.082V10.8125H28.4335V9.46094Z" fill="#316485"/>
<path d="M28.4335 12.1641H27.082V13.5156H28.4335V12.1641Z" fill="#316485"/>
<path d="M28.4335 14.8672H27.082V16.2187H28.4335V14.8672Z" fill="#316485"/>
<path d="M19.6485 17.5703H18.2969V18.9219H19.6485V17.5703Z" fill="#316485"/>
<path d="M19.6485 20.2734H18.2969V21.625H19.6485V20.2734Z" fill="#316485"/>
</svg>

<svg width="42" height="42" viewBox="0 0 42 42" fill="none" xmlns="http://www.w3.org/2000/svg"><path d="M39.389 20.273a8.412 8.412 0 0 1-7.014-3.754l-.563-.843-.562.843a8.412 8.412 0 0 1-7.014 3.754h-2.56V31.11a8.8 8.8 0 0 0 3.15 6.733H10.863V35.14h8.785V22.976H5.458v5.407H1.402V1.352h29.734v12.163h1.351V0H.051v29.338l9.857 9.857h16.995L31.813 42l5.71-3.263a8.804 8.804 0 0 0 4.426-7.627V20.273h-2.56zM9.512 36.888l-7.154-7.154h7.154v7.154zm-2.703-8.505v-4.055h11.488v9.46h-7.434v-5.405H6.81zm33.788 2.727a7.45 7.45 0 0 1-3.745 6.454l-5.04 2.88-5.04-2.88a7.45 7.45 0 0 1-3.745-6.454v-9.485h1.21a9.76 9.76 0 0 0 7.575-3.594 9.76 9.76 0 0 0 7.576 3.594h1.21v9.485z" fill="#316485"/><path d="M37.894 27.03v4.08a4.742 4.742 0 0 1-2.383 4.107l.67 1.173a6.095 6.095 0 0 0 3.065-5.28v-4.08h-1.352zM4.106 2.703v4.055h24.327V2.703H4.106zm22.976 2.703H5.457V4.055h21.625v1.351zm10.335 17.768l-8.984 8.983-2.225-2.225-.955.956 3.18 3.18 9.94-9.938-.956-.956zM16.945 25.68H8.16v1.35h8.785v-1.35zm0 2.702h-4.73v1.352h4.73v-1.352zm0 2.703h-4.73v1.352h4.73v-1.352zM25.73 9.46H4.106v1.352H25.73v-1.35zm0 2.704H4.106v1.352H25.73v-1.352zm0 2.703H4.106v1.352H25.73v-1.352zm-8.785 2.703H4.105v1.352h12.84V17.57zm0 2.703H4.105v1.352h12.84v-1.352zM28.433 9.46h-1.351v1.352h1.351v-1.35zm0 2.704h-1.351v1.352h1.351v-1.352zm0 2.703h-1.351v1.352h1.351v-1.352zm-8.785 2.703h-1.351v1.352h1.351V17.57zm0 2.703h-1.351v1.352h1.351v-1.352z" fill="#316485"/></svg>
